src/main/resources/icons/actions/restartDebugger.svg

<svg width="16px" height="16px" xmlns="http://www.w3.org/2000/svg">
    <g>
        <rect fill="none" id="canvas_background" height="402" width="582" y="-1" x="-1"/>
    </g>
    <g>
        <path id="svg_1"
              fill="#FF5370"
              d="m14,12l-4,0l0,-2l4,0m0,6l-4,0l0,-2l4,0m6,-6l-2.81,0c-0.45,-0.78 -1.07,-1.45 -1.82,-1.96l1.63,-1.63l-1.41,-1.41l-2.17,2.17c-0.46,-0.11 -0.92,-0.17 -1.42,-0.17c-0.5,0 -0.96,0.06 -1.41,0.17l-2.18,-2.17l-1.41,1.41l1.62,1.63c-0.74,0.51 -1.36,1.18 -1.81,1.96l-2.81,0l0,2l2.09,0c-0.05,0.33 -0.09,0.66 -0.09,1l0,1l-2,0l0,2l2,0l0,1c0,0.34 0.04,0.67 0.09,1l-2.09,0l0,2l2.81,0c1.04,1.79 2.97,3 5.19,3c2.22,0 4.15,-1.21 5.19,-3l2.81,0l0,-2l-2.09,0c0.05,-0.33 0.09,-0.66 0.09,-1l0,-1l2,0l0,-2l-2,0l0,-1c0,-0.34 -0.04,-0.67 -0.09,-1l2.09,0l0,-2z"/>
        <g id="svg_6">
            <path id="svg_5"
                  d="m17.871675,13.407391c1.197105,0 2.38837,0.449644 3.299337,1.360612c1.827774,1.827774 1.821935,4.7709 -0.00584,6.604513c-1.068635,1.086153 -2.534358,1.518279 -3.930007,1.331414l0.309495,-1.144549c0.99856,0.093433 2.037998,-0.24526 2.802977,-1.010239c1.366451,-1.366451 1.366451,-3.585474 0,-4.951925c-0.689065,-0.689065 -1.582514,-1.021919 -2.475963,-1.021919l0,2.674507l-2.896409,-2.89057l2.896409,-2.89057l0,1.938725m-3.305176,7.970965c-1.541637,-1.547477 -1.775218,-3.88329 -0.718263,-5.670188l0.864251,0.858412c-0.636509,1.302216 -0.397088,2.908088 0.677386,3.982562c0.303656,0.303656 0.654028,0.543077 1.021919,0.712423l-0.291977,1.138709c-0.583953,-0.233581 -1.097832,-0.566435 -1.553316,-1.021919z"
                  fill="#4DB6AC"/>
        </g>
    </g>
</svg>

<svg width="16px" height="16px" xmlns="http://www.w3.org/2000/svg">
    <svg xmlns="http://www.w3.org/2000/svg"
         version="1.1" width="16px" height="16px"
         viewBox="0 0 24 24">
        <path fill="#FF5370"
              d="M14,12H10V10H14M14,16H10V14H14M20,8H17.19C16.74,7.22 16.12,6.55 15.37,6.04L17,4.41L15.59,3L13.42,5.17C12.96,5.06 12.5,5 12,5C11.5,5 11.04,5.06 10.59,5.17L8.41,3L7,4.41L8.62,6.04C7.88,6.55 7.26,7.22 6.81,8H4V10H6.09C6.04,10.33 6,10.66 6,11V12H4V14H6V15C6,15.34 6.04,15.67 6.09,16H4V18H6.81C7.85,19.79 9.78,21 12,21C14.22,21 16.15,19.79 17.19,18H20V16H17.91C17.96,15.67 18,15.34 18,15V14H20V12H18V11C18,10.66 17.96,10.33 17.91,10H20V8Z"/>
        <path fill="#66BB6A" transform="scale(0.7) translate(12 12)"
              d="M17.65,6.35C16.2,4.9 14.21,4 12,4A8,8 0 0,0 4,12A8,8 0 0,0 12,20C15.73,20 18.84,17.45 19.73,14H17.65C16.83,16.33 14.61,18 12,18A6,6 0 0,1 6,12A6,6 0 0,1 12,6C13.66,6 15.14,6.69 16.22,7.78L13,11H20V4L17.65,6.35Z"/>
    </svg>

</svg>
